img/arrow-right.svg

<svg width="50" height="50" viewBox="0 0 50 50" fill="none" xmlns="http://www.w3.org/2000/svg">
<path d="M6.06774 39.2774C8.27371 41.5974 10.6802 43.6274 13.3876 45.3674C16.0949 47.1073 19.103 48.5573 22.3117 49.3307C25.5204 50.104 28.9296 50.2973 32.2386 49.4273C35.5475 48.654 38.5557 46.914 40.9622 44.6907C45.7752 40.2441 48.5828 34.1541 49.5855 27.9675C50.0869 24.8742 50.1872 21.6842 49.5855 18.5909C48.9839 15.4975 47.8809 12.4042 46.076 9.79425C44.2711 7.18426 41.8646 4.86428 38.9568 3.12429C36.1492 1.48096 32.8402 0.417638 29.5313 0.12764C22.9133 -0.549023 15.8943 1.48096 10.7805 5.83094C10.1789 6.31427 9.57725 6.99093 8.97562 7.57093C8.37399 8.15092 7.87263 8.73092 7.37127 9.40758C6.36856 10.6642 5.36585 11.9209 4.46341 13.2742C2.65852 15.9809 1.25472 18.8809 0.452553 21.9742C-0.249348 25.0675 -0.149082 28.4508 0.853634 31.4474C2.05689 34.3474 3.96204 37.0541 6.06774 39.2774ZM6.2683 39.1807C4.1626 36.8607 2.3577 34.2508 1.55553 31.2541C0.753357 28.2575 0.953903 25.1642 1.85635 22.2642C2.75879 19.3642 4.36313 16.7542 6.16802 14.2409C7.07046 12.9842 8.07317 11.8242 9.07588 10.6642C9.57724 10.0842 10.0786 9.50425 10.6802 8.92425C11.2819 8.44092 11.7832 7.86092 12.3848 7.37759C16.9973 3.51095 23.3144 1.48096 29.5313 1.96429C32.6397 2.25429 35.6478 3.02762 38.3551 4.47761C41.0625 5.9276 43.469 7.95759 45.3741 10.3742C49.1844 15.3042 50.2874 21.8775 49.0842 27.8708C48.4825 30.8674 47.3796 33.7674 45.7752 36.4741C44.1709 39.0841 42.2657 41.5007 39.8592 43.5307C37.553 45.464 34.8456 47.0107 31.8375 47.784C28.8294 48.5573 25.7209 48.654 22.6125 48.1707C16.3957 47.1073 10.58 43.724 6.2683 39.1807Z" fill="#FFF8EE"/>
<path d="M29 25L21 15L27 25L21 35L29 25Z" fill="#FFF8EE"/>
</svg>

<svg xmlns="http://www.w3.org/2000/svg" width="50" height="50" fill="#fff8ee"  xmlns:v="https://vecta.io/nano"><path d="M6.068 39.277c2.206 2.32 4.612 4.35 7.32 6.09s5.715 3.19 8.924 3.963 6.618.967 9.927.097c3.309-.773 6.317-2.513 8.724-4.737 4.813-4.447 7.621-10.537 8.623-16.723.501-3.093.602-6.283 0-9.377s-1.705-6.187-3.51-8.797-4.211-4.93-7.119-6.67A22.89 22.89 0 0 0 29.531.128C22.913-.549 15.894 1.481 10.78 5.831c-.602.483-1.203 1.16-1.805 1.74a14.2 14.2 0 0 0-1.604 1.837c-1.003 1.257-2.005 2.513-2.908 3.867-1.805 2.707-3.209 5.607-4.011 8.7-.702 3.093-.602 6.477.401 9.473 1.203 2.9 3.108 5.607 5.214 7.83zm.201-.097c-2.106-2.32-3.911-4.93-4.713-7.927s-.602-6.09.301-8.99 2.507-5.51 4.312-8.023c.902-1.257 1.905-2.417 2.908-3.577.501-.58 1.003-1.16 1.604-1.74.602-.483 1.103-1.063 1.705-1.547 4.612-3.867 10.93-5.897 17.147-5.413 3.108.29 6.116 1.063 8.824 2.513s5.114 3.48 7.019 5.897c3.81 4.93 4.913 11.503 3.71 17.497-.602 2.997-1.705 5.897-3.309 8.603-1.604 2.61-3.509 5.027-5.916 7.057-2.306 1.933-5.014 3.48-8.022 4.253s-6.117.87-9.225.387c-6.217-1.063-12.032-4.447-16.344-8.99zM29 25l-8-10 6 10-6 10 8-10z"/></svg>
